src/components/styles/images/suitcase.svg

<?xml version="1.0" encoding="UTF-8"?>
<svg enable-background="new 0 0 480 480" version="1.1" viewBox="0 0 480 480" xml:space="preserve" xmlns="http://www.w3.org/2000/svg">
<path d="m216 252c-152 0-208-40-208-40v197c0 10.493 8.507 19 19 19h426c10.493 0 19-8.507 19-19v-197s-56 40-208 40h-48z" fill="#29485A"/>
<path d="m453 116h-426c-10.493 0-19 8.507-19 19v93s56 40 208 40h48c152 0 208-40 208-40v-93c0-10.493-8.507-19-19-19z" fill="#1E3642"/>
<path d="m453 100h-426c-10.493 0-19 8.507-19 19v93s56 40 208 40h48c152 0 208-40 208-40v-93c0-10.493-8.507-19-19-19z" fill="#40718C"/>
<path d="m216 212h48v72h-48v-72z" fill="#CDA349"/>
<path d="m27 436h426c14.904-0.018 26.982-12.096 27-27v-290c-0.018-14.904-12.096-26.982-27-27h-141v-26c-9e-3 -12.147-9.853-21.991-22-22h-100c-12.147 9e-3 -21.991 9.853-22 22v26h-141c-14.904 0.018-26.982 12.096-27 27v290c0.018 14.904 12.096 26.982 27 27zm426-16h-426c-6.071-9e-3 -10.991-4.929-11-11v-183.34c23.688 11.616 82.448 33.248 192 34.272v24.064c0 4.418 3.582 8 8 8h48c4.418 0 8-3.582 8-8v-24.064c109.55-1.024 168.31-22.656 192-34.272v183.34c-9e-3 6.071-4.929 10.991-11 11zm-197-144h-32v-56h32v56zm-72-210c4e-3 -3.312 2.688-5.996 6-6h100c3.312 4e-3 5.996 2.688 6 6v26h-112v-26zm-157 42h426c6.071 9e-3 10.991 4.929 11 11v88.52c-13.68 7.776-70.552 35.2-192 36.416v-31.936c0-4.418-3.582-8-8-8h-48c-4.418 0-8 3.582-8 8v31.936c-121.43-1.176-178.31-28.624-192-36.416v-88.52c9e-3 -6.071 4.929-10.991 11-11z"/>
</svg>

<?xml version="1.0" encoding="iso-8859-1"?>
<!-- Generator: Adobe Illustrator 19.0.0, SVG Export Plug-In . SVG Version: 6.00 Build 0)  -->
<svg version="1.1" id="Capa_1" xmlns="http://www.w3.org/2000/svg" xmlns:xlink="http://www.w3.org/1999/xlink" x="0px" y="0px"
	 viewBox="0 0 480 480" style="enable-background:new 0 0 480 480;" xml:space="preserve">
<path style="fill:#29485A;" d="M216,252C64,252,8,212,8,212v197c0,10.493,8.507,19,19,19l0,0h426c10.493,0,19-8.507,19-19l0,0V212
	c0,0-56,40-208,40H216z"/>
<path style="fill:#1E3642;" d="M453,116H27c-10.493,0-19,8.507-19,19v93c0,0,56,40,208,40h48c152,0,208-40,208-40v-93
	C472,124.507,463.493,116,453,116z"/>
<path style="fill:#40718C;" d="M453,100H27c-10.493,0-19,8.507-19,19v93c0,0,56,40,208,40h48c152,0,208-40,208-40v-93
	C472,108.507,463.493,100,453,100z"/>
<path style="fill:#CDA349;" d="M216,212h48v72h-48V212z"/>
<path d="M27,436h426c14.904-0.018,26.982-12.096,27-27V119c-0.018-14.904-12.096-26.982-27-27H312V66
	c-0.009-12.147-9.853-21.991-22-22H190c-12.147,0.009-21.991,9.853-22,22v26H27c-14.904,0.018-26.982,12.096-27,27v290
	C0.018,423.904,12.096,435.982,27,436z M453,420H27c-6.071-0.009-10.991-4.929-11-11V225.664
	c23.688,11.616,82.448,33.248,192,34.272V284c0,4.418,3.582,8,8,8h48c4.418,0,8-3.582,8-8v-24.064
	c109.552-1.024,168.312-22.656,192-34.272V409C463.991,415.071,459.071,419.991,453,420z M256,276h-32v-56h32V276z M184,66
	c0.004-3.312,2.688-5.996,6-6h100c3.312,0.004,5.996,2.688,6,6v26H184V66z M27,108h426c6.071,0.009,10.991,4.929,11,11v88.52
	c-13.68,7.776-70.552,35.2-192,36.416V212c0-4.418-3.582-8-8-8h-48c-4.418,0-8,3.582-8,8v31.936
	C86.568,242.76,29.688,215.312,16,207.52V119C16.009,112.929,20.929,108.009,27,108z"/>
<g>
</g>
<g>
</g>
<g>
</g>
<g>
</g>
<g>
</g>
<g>
</g>
<g>
</g>
<g>
</g>
<g>
</g>
<g>
</g>
<g>
</g>
<g>
</g>
<g>
</g>
<g>
</g>
<g>
</g>
</svg>
